img/icons/board/search.svg

<?xml version="1.0" encoding="UTF-8" standalone="no"?>
<svg
   width="32"
   height="32"
   viewBox="0 0 32 32"
   fill="none"
   version="1.1"
   id="svg1"
   sodipodi:docname="search.svg"
   inkscape:version="1.3 (0e150ed6c4, 2023-07-21)"
   xmlns:inkscape="http://www.inkscape.org/namespaces/inkscape"
   xmlns:sodipodi="http://sodipodi.sourceforge.net/DTD/sodipodi-0.dtd"
   xmlns="http://www.w3.org/2000/svg"
   xmlns:svg="http://www.w3.org/2000/svg">
  <defs
     id="defs1" />
  <sodipodi:namedview
     id="namedview1"
     pagecolor="#ffffff"
     bordercolor="#000000"
     borderopacity="0.25"
     inkscape:showpageshadow="2"
     inkscape:pageopacity="0.0"
     inkscape:pagecheckerboard="0"
     inkscape:deskcolor="#d1d1d1"
     inkscape:zoom="36.90625"
     inkscape:cx="15.986452"
     inkscape:cy="16"
     inkscape:window-width="2560"
     inkscape:window-height="1377"
     inkscape:window-x="-8"
     inkscape:window-y="-8"
     inkscape:window-maximized="1"
     inkscape:current-layer="svg1" />
  <mask
     id="mask0_3_13683"
     style="mask-type:alpha"
     maskUnits="userSpaceOnUse"
     x="0"
     y="0"
     width="32"
     height="32">
    <rect
       width="32"
       height="32"
       fill="#D9D9D9"
       id="rect1" />
  </mask>
  <g
     mask="url(#mask0_3_13683)"
     id="g1"
     transform="matrix(1.8202462,0,0,1.8202462,-13.123903,-13.123903)">
    <path
       d="m 13.7118,20.2137 c -1.8172,0 -3.3551,-0.6294 -4.6138,-1.8881 -1.25869,-1.2587 -1.88804,-2.7966 -1.88804,-4.6138 0,-1.8172 0.62935,-3.3551 1.88804,-4.6138 1.2587,-1.25869 2.7966,-1.88804 4.6138,-1.88804 1.8172,0 3.3551,0.62935 4.6138,1.88804 1.2587,1.2587 1.8881,2.7966 1.8881,4.6138 0,0.7336 -0.1167,1.4254 -0.3501,2.0756 -0.2334,0.6502 -0.5502,1.2253 -0.9503,1.7255 l 5.6016,5.6016 c 0.1834,0.1834 0.2751,0.4168 0.2751,0.7002 0,0.2834 -0.0917,0.5168 -0.2751,0.7002 -0.1834,0.1834 -0.4168,0.2751 -0.7002,0.2751 -0.2834,0 -0.5168,-0.0917 -0.7002,-0.2751 l -5.6016,-5.6016 c -0.5002,0.4001 -1.0753,0.7169 -1.7255,0.9503 -0.6502,0.2334 -1.342,0.3501 -2.0756,0.3501 z m 0,-2.0006 c 1.2504,0 2.3132,-0.4376 3.1884,-1.3129 0.8753,-0.8752 1.3129,-1.938 1.3129,-3.1884 0,-1.2503 -0.4376,-2.3131 -1.3129,-3.1884 -0.8752,-0.87525 -1.938,-1.31287 -3.1884,-1.31287 -1.2503,0 -2.3131,0.43762 -3.1884,1.31287 -0.87525,0.8753 -1.31287,1.9381 -1.31287,3.1884 0,1.2504 0.43762,2.3132 1.31287,3.1884 0.8753,0.8753 1.9381,1.3129 3.1884,1.3129 z"
       fill="#2a3647"
       id="path1" />
  </g>
</svg>

<svg width="32" height="32" viewBox="0 0 32 32" fill="none" xmlns="http://www.w3.org/2000/svg">
<mask id="mask0_145371_5378" style="mask-type:alpha" maskUnits="userSpaceOnUse" x="0" y="0" width="32" height="32">
<rect width="32" height="32" fill="#D9D9D9"/>
</mask>
<g mask="url(#mask0_145371_5378)">
<path d="M13.7118 20.2137C11.8946 20.2137 10.3567 19.5843 9.098 18.3256C7.83931 17.0669 7.20996 15.529 7.20996 13.7118C7.20996 11.8946 7.83931 10.3567 9.098 9.098C10.3567 7.83931 11.8946 7.20996 13.7118 7.20996C15.529 7.20996 17.0669 7.83931 18.3256 9.098C19.5843 10.3567 20.2137 11.8946 20.2137 13.7118C20.2137 14.4454 20.097 15.1372 19.8636 15.7874C19.6302 16.4376 19.3134 17.0127 18.9133 17.5129L24.5149 23.1145C24.6983 23.2979 24.79 23.5313 24.79 23.8147C24.79 24.0981 24.6983 24.3315 24.5149 24.5149C24.3315 24.6983 24.0981 24.79 23.8147 24.79C23.5313 24.79 23.2979 24.6983 23.1145 24.5149L17.5129 18.9133C17.0127 19.3134 16.4376 19.6302 15.7874 19.8636C15.1372 20.097 14.4454 20.2137 13.7118 20.2137ZM13.7118 18.2131C14.9622 18.2131 16.025 17.7755 16.9002 16.9002C17.7755 16.025 18.2131 14.9622 18.2131 13.7118C18.2131 12.4615 17.7755 11.3987 16.9002 10.5234C16.025 9.64815 14.9622 9.21053 13.7118 9.21053C12.4615 9.21053 11.3987 9.64815 10.5234 10.5234C9.64815 11.3987 9.21053 12.4615 9.21053 13.7118C9.21053 14.9622 9.64815 16.025 10.5234 16.9002C11.3987 17.7755 12.4615 18.2131 13.7118 18.2131Z" fill="#2A3647"/>
</g>
</svg>
